**kern	**silbe	**harmony	**phrase	**leadinstrument	**rhyme	**timestamp	**harte
*ICvox	*	*M4/4	*	*	*	*	*M4/4
*VRlead	*	*	*	*	*	*	*
*Hstimme	*	*	*	*	*	*	*
*E:	*	*E:	*	*	*	*	*E:
*M4/4	*	*	*	*	*	*	*
*clefF4	*	*	*	*	*	*	*
r;	.	1r;	.	r	.	0	N.C.
=1	=1	=1	=1	=1	=1	=1	=1
*>Letter>A	*>Letter>A	*>Letter>A	*>Letter>A	*>Letter>A	*>Letter>A	*>Letter>A	*>Letter>A
*>Label>Intro	*>Label>Intro	*>Label>Intro	*>Label>Intro	*>Label>Intro	*>Label>Intro	*>Label>Intro	*>Label>Intro
1r	.	1EM	newline	r	.	0.395	E:maj
=2	=2	=2	=2	=2	=2	=2	=2
1r	.	2AM	.	r	.	2.482	A:maj
.	.	2EM	.	r	.	3.525	E:maj
=3	=3	=3	=3	=3	=3	=3	=3
1r	.	1EM	.	r	.	4.569	E:maj
=4	=4	=4	=4	=4	=4	=4	=4
2r	.	2AM	.	r	.	6.656	A:maj
4r	.	2EM	.	r	.	7.7	E:maj
8r	.	.	.	.	.	.	.
8E	You	.	.	.	.	.	.
=5	=5	=5	=5	=5	=5	=5	=5
*>Letter>B	*>Letter>B	*>Letter>B	*>Letter>B	*>Letter>B	*>Letter>B	*>Letter>B	*>Letter>B
*>Label>Chorus	*>Label>Chorus	*>Label>Chorus	*>Label>Chorus	*>Label>Chorus	*>Label>Chorus	*>Label>Chorus	*>Label>Chorus
8G#	fought	1EM	newline	voice	.	8.743	E:maj
4G#	all	.	.	.	.	.	.
8B	the	.	.	.	.	.	.
4G#	way	.	.	.	.	.	.
8E	John-	.	.	.	.	.	.
8E	-ny	.	.	.	.	.	.
=6	=6	=6	=6	=6	=6	=6	=6
4G#	Reb,	1EM	.	voice	.	10.824	E:maj
8G#	John-	.	.	.	.	.	.
8F#	-ny	.	.	.	.	.	.
4E	Reb	.	.	.	.	.	.
8r	.	.	.	.	.	.	.
8E	You	.	.	.	.	.	.
=7	=7	=7	=7	=7	=7	=7	=7
8G#	fought	2.EM	.	voice	.	12.905	E:maj
4G#	all	.	.	.	.	.	.
8B	the	.	.	.	.	.	.
4G#	way	.	.	.	.	.	.
8E	John-	4BMm	.	voice	.	14.466	B:7
8E	-ny	.	.	.	.	.	.
=8	=8	=8	=8	=8	=8	=8	=8
4E	Reb	1EM	.	voice	.	14.986	E:maj
4r	.	.	.	.	.	.	.
2r	.	.	.	.	.	.	.
=9	=9	=9	=9	=9	=9	=9	=9
1r	.	1EM	.	voice	.	17.067	E:maj
=10	=10	=10	=10	=10	=10	=10	=10
*>Letter>C	*>Letter>C	*>Letter>C	*>Letter>C	*>Letter>C	*>Letter>C	*>Letter>C	*>Letter>C
*>Label>Verse	*>Label>Verse	*>Label>Verse	*>Label>Verse	*>Label>Verse	*>Label>Verse	*>Label>Verse	*>Label>Verse
8G#	Saw	1EM	newline	voice	.	19.149	E:maj
4G#	you	.	.	.	.	.	.
8F#	a	.	.	.	.	.	.
8G#	mar-	.	.	.	.	.	.
8E	-chin'	.	.	.	.	.	.
4E	with	.	.	.	.	.	.
=11	=11	=11	=11	=11	=11	=11	=11
8C#	Ro-	2AM	.	voice	.	21.263	A:maj
8E	-bert	.	.	.	.	.	.
8F#	E.	.	.	.	A	.	.
8F#	Lee	.	.	.	A	.	.
4E	_	2EM	.	voice	.	22.32	E:maj
8r	.	.	.	.	.	.	.
8G#	You	.	.	.	.	.	.
=12	=12	=12	=12	=12	=12	=12	=12
8G#	held	1EM	.	voice	.	23.377	E:maj
8B	your	.	.	.	.	.	.
8B	head	.	.	.	.	.	.
8G#	uh	.	.	.	.	.	.
4B	high	.	.	.	.	.	.
8B	tryin'	.	.	.	.	.	.
8B	to	.	.	.	.	.	.
=13	=13	=13	=13	=13	=13	=13	=13
8c#	win	1BMm	.	voice	.	25.491	B:7
8B	the	.	.	.	.	.	.
8G#	vic-	.	.	.	.	.	.
8B	-to-	.	.	.	.	.	.
4B	-ry	.	.	.	A	.	.
8r	.	.	.	.	.	.	.
8B	You	.	.	.	.	.	.
=14	=14	=14	=14	=14	=14	=14	=14
8c#	fought	1AM	newline	voice	.	27.605	A:maj
4c#	for	.	.	.	.	.	.
8c#	your	.	.	.	.	.	.
4c#	folks	.	.	.	.	.	.
8d#	but	.	.	.	.	.	.
8c#	you	.	.	.	.	.	.
=15	=15	=15	=15	=15	=15	=15	=15
16B	did-	1EM	.	voice	.	29.697	E:maj
16B	-'nt	.	.	.	.	.	.
4B	die	.	.	.	.	.	.
8B	in	.	.	.	.	.	.
4E	vain	.	.	.	B	.	.
4r	.	.	.	.	.	.	.
=16	=16	=16	=16	=16	=16	=16	=16
8G#	E-	1EM	.	voice	.	31.789	E:maj
8F#	-ven	.	.	.	.	.	.
8G#	though	.	.	.	.	.	.
8F#	you	.	.	.	.	.	.
8E	lost	.	.	.	.	.	.
8BB	they	.	.	.	.	.	.
8BB	speak	.	.	.	.	.	.
8BB	high-	.	.	.	.	.	.
=17	=17	=17	=17	=17	=17	=17	=17
8C#	_	2BMm	.	voice	.	33.88	B:7
8E	-ly	.	.	.	.	.	.
8E	of	.	.	.	.	.	.
8F#	your	.	.	.	.	.	.
16F#	name	2EM	.	voice	B	34.926	E:maj
8.E	_	.	.	.	.	.	.
8E	'cause	.	.	.	.	.	.
8E	You	.	.	.	.	.	.
=18	=18	=18	=18	=18	=18	=18	=18
*>Letter>B	*>Letter>B	*>Letter>B	*>Letter>B	*>Letter>B	*>Letter>B	*>Letter>B	*>Letter>B
*>Label>Chorus	*>Label>Chorus	*>Label>Chorus	*>Label>Chorus	*>Label>Chorus	*>Label>Chorus	*>Label>Chorus	*>Label>Chorus
8G#	fought	1EM	newline	voice	.	35.972	E:maj
4G#	all	.	.	.	.	.	.
8B	the	.	.	.	.	.	.
4G#	way	.	.	.	.	.	.
8E	John-	.	.	.	.	.	.
8E	-ny	.	.	.	.	.	.
=19	=19	=19	=19	=19	=19	=19	=19
4G#	Reb,	1EM	.	voice	.	38.042	E:maj
8G#	John-	.	.	.	.	.	.
8F#	-ny	.	.	.	.	.	.
4E	Reb	.	.	.	.	.	.
8r	.	.	.	.	.	.	.
8E	You	.	.	.	.	.	.
=20	=20	=20	=20	=20	=20	=20	=20
8G#	fought	2.EM	.	voice	.	40.111	E:maj
4G#	all	.	.	.	.	.	.
8B	the	.	.	.	.	.	.
4G#	way	.	.	.	.	.	.
8E	John-	4BMm	.	voice	.	41.664	B:7
8E	-ny	.	.	.	.	.	.
=21	=21	=21	=21	=21	=21	=21	=21
4E	Reb	1EM	.	voice	.	42.181	E:maj
4r	.	.	.	.	.	.	.
2r	.	.	.	.	.	.	.
=22	=22	=22	=22	=22	=22	=22	=22
2r	.	1EM	.	voice	.	44.251	E:maj
4r	.	.	.	.	.	.	.
8r	.	.	.	.	.	.	.
8F#	I	.	.	.	.	.	.
=23	=23	=23	=23	=23	=23	=23	=23
*>Letter>C	*>Letter>C	*>Letter>C	*>Letter>C	*>Letter>C	*>Letter>C	*>Letter>C	*>Letter>C
*>Label>Verse	*>Label>Verse	*>Label>Verse	*>Label>Verse	*>Label>Verse	*>Label>Verse	*>Label>Verse	*>Label>Verse
8G#	heard	1EM	newline	voice	.	46.32	E:maj
8F#	your	.	.	.	.	.	.
8G#	teeth	.	.	.	.	.	.
4G#	chat-	.	.	.	.	.	.
8F#	-ter	.	.	.	.	.	.
8E	from	.	.	.	.	.	.
8BB	the	.	.	.	.	.	.
=24	=24	=24	=24	=24	=24	=24	=24
8C#	cold	2AM	.	voice	.	48.41	A:maj
8E	_	.	.	.	.	.	.
4E	out-	.	.	.	.	.	.
4E	-side	2EM	.	voice	C	49.455	E:maj
4r	.	.	.	.	.	.	.
=25	=25	=25	=25	=25	=25	=25	=25
8G#	Saw	1EM	.	voice	.	50.5	E:maj
8B	the	.	.	.	.	.	.
16B	bul-	.	.	.	.	.	.
8.G#	-lets	.	.	.	.	.	.
8B	o-	.	.	.	.	.	.
8B	-pen	.	.	.	.	.	.
8B	up	.	.	.	.	.	.
8B	the	.	.	.	.	.	.
=26	=26	=26	=26	=26	=26	=26	=26
4c#	wounds	1BMm	.	voice	.	52.59	B:7
8G#	in	.	.	.	.	.	.
8B	your	.	.	.	.	.	.
4B	side	.	.	.	C	.	.
8.r	.	.	.	.	.	.	.
16B	I	.	.	.	.	.	.
=27	=27	=27	=27	=27	=27	=27	=27
8c#	saw	1AM	newline	voice	.	54.679	A:maj
8c#	the	.	.	.	.	.	.
4c#	young	.	.	.	.	.	.
4c#	boys	.	.	.	.	.	.
8.r	.	.	.	.	.	.	.
16A	as	.	.	.	.	.	.
=28	=28	=28	=28	=28	=28	=28	=28
8B	they	1EM	.	voice	.	56.773	E:maj
8B	be-	.	.	.	.	.	.
8B	-gan	.	.	.	.	.	.
8B	to	.	.	.	.	.	.
8E	fall	.	.	.	D	.	.
8E	You	.	.	.	.	.	.
4E	had	.	.	.	.	.	.
=29	=29	=29	=29	=29	=29	=29	=29
4G#	tears	1EM	.	voice	.	58.867	E:maj
8G#	in	.	.	.	.	.	.
8F#	your	.	.	.	.	.	.
4E	eyes	.	.	.	.	.	.
8BB	'cause	.	.	.	.	.	.
8BB	you	.	.	.	.	.	.
=30	=30	=30	=30	=30	=30	=30	=30
8C#	could-	2BMm	.	voice	.	60.961	B:7
8E	-n't	.	.	.	.	.	.
8E	help	.	.	.	.	.	.
8E	at	.	.	.	.	.	.
16F#	all	2EM	.	voice	D	62.008	E:maj
8.E	_	.	.	.	.	.	.
8E	But	.	.	.	.	.	.
8E	you	.	.	.	.	.	.
=31	=31	=31	=31	=31	=31	=31	=31
*>Letter>B	*>Letter>B	*>Letter>B	*>Letter>B	*>Letter>B	*>Letter>B	*>Letter>B	*>Letter>B
*>Label>Chorus	*>Label>Chorus	*>Label>Chorus	*>Label>Chorus	*>Label>Chorus	*>Label>Chorus	*>Label>Chorus	*>Label>Chorus
8G#	fought	1EM	newline	voice	.	63.055	E:maj
4G#	all	.	.	.	.	.	.
8B	the	.	.	.	.	.	.
4G#	way	.	.	.	.	.	.
8E	John-	.	.	.	.	.	.
8E	-ny	.	.	.	.	.	.
=32	=32	=32	=32	=32	=32	=32	=32
4G#	Reb,	1EM	.	voice	.	65.142	E:maj
8G#	John-	.	.	.	.	.	.
8F#	-ny	.	.	.	.	.	.
4E	Reb	.	.	.	.	.	.
8r	.	.	.	.	.	.	.
8E	You	.	.	.	.	.	.
=33	=33	=33	=33	=33	=33	=33	=33
8G#	fought	2.EM	.	voice	.	67.23	E:maj
4G#	all	.	.	.	.	.	.
8B	the	.	.	.	.	.	.
4G#	way	.	.	.	.	.	.
8E	John-	4BMm	.	voice	.	68.796	B:7
8E	-ny	.	.	.	.	.	.
=34	=34	=34	=34	=34	=34	=34	=34
4E	Reb	1EM	.	voice	.	69.318	E:maj
4r	.	.	.	.	.	.	.
2r	.	.	.	.	.	.	.
=35	=35	=35	=35	=35	=35	=35	=35
2r	.	1EM	.	voice	.	71.406	E:maj
4r	.	.	.	.	.	.	.
8.r	.	.	.	.	.	.	.
16E	I	.	.	.	.	.	.
=36	=36	=36	=36	=36	=36	=36	=36
*>Letter>C	*>Letter>C	*>Letter>C	*>Letter>C	*>Letter>C	*>Letter>C	*>Letter>C	*>Letter>C
*>Label>Verse	*>Label>Verse	*>Label>Verse	*>Label>Verse	*>Label>Verse	*>Label>Verse	*>Label>Verse	*>Label>Verse
8G#	saw	1EM	newline	voice	.	73.494	E:maj
4G#	Gen'-	.	.	.	.	.	.
8F#	-ral	.	.	.	.	.	.
4G#	Lee	.	.	.	.	.	.
8BB	raise	.	.	.	.	.	.
8BB	a	.	.	.	.	.	.
=37	=37	=37	=37	=37	=37	=37	=37
8C#	sa-	2AM	.	voice	.	75.585	A:maj
8E	-ber	.	.	.	.	.	.
8E	in	.	.	.	.	.	.
8F#	his	.	.	.	.	.	.
4E	hand	2EM	.	voice	E	76.631	E:maj
4r	.	.	.	.	.	.	.
=38	=38	=38	=38	=38	=38	=38	=38
8G#	Heard	1EM	.	voice	.	77.677	E:maj
8B	the	.	.	.	.	.	.
8B	can-	.	.	.	.	.	.
8B	-nons	.	.	.	.	.	.
4B	roar	.	.	.	.	.	.
8B	as	.	.	.	.	.	.
8B	you	.	.	.	.	.	.
=39	=39	=39	=39	=39	=39	=39	=39
8c#	made	1BMm	.	voice	.	79.769	B:7
8B	your	.	.	.	.	.	.
4B	last	.	.	.	.	.	.
4B	stand	.	.	.	E	.	.
8.r	.	.	.	.	.	.	.
16B	You	.	.	.	.	.	.
=40	=40	=40	=40	=40	=40	=40	=40
8c#	marched	1AM	newline	voice	.	81.861	A:maj
4c#	in-	.	.	.	.	.	.
8c#	-to	.	.	.	.	.	.
8c#	bat-	.	.	.	.	.	.
8c#	-tle	.	.	.	.	.	.
8d#	with	.	.	.	.	.	.
8c#	the	.	.	.	.	.	.
=41	=41	=41	=41	=41	=41	=41	=41
8B	Grey	1EM	.	voice	.	83.968	E:maj
4B	and	.	.	.	.	.	.
8B	the	.	.	.	.	.	.
4E	Red	.	.	.	F	.	.
8E	When	.	.	.	.	.	.
8E	the	.	.	.	.	.	.
=42	=42	=42	=42	=42	=42	=42	=42
8G#	can-	1EM	.	voice	.	86.076	E:maj
8F#	-non	.	.	.	.	.	.
4G#	smoke	.	.	.	.	.	.
4E	cleared	.	.	.	.	.	.
8.BB	took	.	.	.	.	.	.
16BB	days	.	.	.	.	.	.
=43	=43	=43	=43	=43	=43	=43	=43
8E	_	2BMm	.	voice	.	88.183	B:7
8E	to	.	.	.	.	.	.
8E	count	.	.	.	.	.	.
8F#	the	.	.	.	.	.	.
4E	dead	2EM	.	voice	F	89.237	E:maj
8E	'Cause	.	.	.	.	.	.
8E	you	.	.	.	.	.	.
=44	=44	=44	=44	=44	=44	=44	=44
*>Letter>B	*>Letter>B	*>Letter>B	*>Letter>B	*>Letter>B	*>Letter>B	*>Letter>B	*>Letter>B
*>Label>Chorus	*>Label>Chorus	*>Label>Chorus	*>Label>Chorus	*>Label>Chorus	*>Label>Chorus	*>Label>Chorus	*>Label>Chorus
8G#	fought	1EM	newline	voice	.	90.29	E:maj
4G#	all	.	.	.	.	.	.
8B	the	.	.	.	.	.	.
4G#	way	.	.	.	.	.	.
8E	John-	.	.	.	.	.	.
8E	-ny	.	.	.	.	.	.
=45	=45	=45	=45	=45	=45	=45	=45
4G#	Reb,	1EM	.	voice	.	92.381	E:maj
8G#	John-	.	.	.	.	.	.
8F#	-ny	.	.	.	.	.	.
4E	Reb	.	.	.	.	.	.
8r	.	.	.	.	.	.	.
8E	You	.	.	.	.	.	.
=46	=46	=46	=46	=46	=46	=46	=46
8G#	fought	2.EM	.	voice	.	94.472	E:maj
4G#	all	.	.	.	.	.	.
8B	the	.	.	.	.	.	.
4G#	way	.	.	.	.	.	.
8E	John-	4BMm	.	voice	.	96.041	B:7
8E	-ny	.	.	.	.	.	.
=47	=47	=47	=47	=47	=47	=47	=47
4E	Reb	1EM	.	voice	.	96.563	E:maj
4r	.	.	.	.	.	.	.
2r	.	.	.	.	.	.	.
=48	=48	=48	=48	=48	=48	=48	=48
2r	.	1EM	.	voice	.	98.654	E:maj
4r	.	.	.	.	.	.	.
8.r	.	.	.	.	.	.	.
16E	When	.	.	.	.	.	.
=49	=49	=49	=49	=49	=49	=49	=49
*>Letter>C	*>Letter>C	*>Letter>C	*>Letter>C	*>Letter>C	*>Letter>C	*>Letter>C	*>Letter>C
*>Label>Verse	*>Label>Verse	*>Label>Verse	*>Label>Verse	*>Label>Verse	*>Label>Verse	*>Label>Verse	*>Label>Verse
8G#	Hon-	1EM	newline	voice	.	100.746	E:maj
4.G#	-est	.	.	.	.	.	.
4G#	Abe	.	.	.	.	.	.
8BB	heard	.	.	.	.	.	.
8BB	the	.	.	.	.	.	.
=50	=50	=50	=50	=50	=50	=50	=50
8C#	news	2AM	.	voice	.	102.842	A:maj
8E	a-	.	.	.	.	.	.
8E	-bout	.	.	.	.	.	.
8E	your	.	.	.	.	.	.
16F#	fall	2EM	.	voice	D	103.891	E:maj
8.E	_	.	.	.	.	.	.
8r	.	.	.	.	.	.	.
16r	.	.	.	.	.	.	.
16G#	The	.	.	.	.	.	.
=51	=51	=51	=51	=51	=51	=51	=51
8G#	folks	1EM	.	voice	.	104.939	E:maj
4B	thought	.	.	.	.	.	.
8B	he'd	.	.	.	.	.	.
4.B	call	.	.	.	.	.	.
8B	a	.	.	.	.	.	.
=52	=52	=52	=52	=52	=52	=52	=52
4c#	great	1BMm	.	voice	.	107.036	B:7
8B	vic-	.	.	.	.	.	.
8G#	-t'ry	.	.	.	.	.	.
8B	ball	.	.	.	D	.	.
8G#	_	.	.	.	.	.	.
8r	.	.	.	.	.	.	.
8B	But	.	.	.	.	.	.
=53	=53	=53	=53	=53	=53	=53	=53
8c#	he	1AM	newline	voice	.	109.133	A:maj
4c#	asked	.	.	.	.	.	.
8c#	the	.	.	.	.	.	.
8c#	band	.	.	.	.	.	.
8c#	to	.	.	.	.	.	.
8d#	play	.	.	.	.	.	.
8c#	the	.	.	.	.	.	.
=54	=54	=54	=54	=54	=54	=54	=54
4B	song	1EM	.	voice	.	111.223	E:maj
8G#	Dix-	.	.	.	.	.	.
[8G#	-ie	.	.	.	A	.	.
8G#]	_	.	.	.	.	.	.
8r	.	.	.	.	.	.	.
8r	.	.	.	.	.	.	.
8E	For	.	.	.	.	.	.
=55	=55	=55	=55	=55	=55	=55	=55
8G#	you	1EM	.	voice	.	113.313	E:maj
4G#	John-	.	.	.	.	.	.
8F#	-ny	.	.	.	.	.	.
4E	Reb	.	.	.	.	.	.
8r	.	.	.	.	.	.	.
8BB	and	.	.	.	.	.	.
=56	=56	=56	=56	=56	=56	=56	=56
8C#	all	2BMm	.	voice	.	115.402	B:7
8E	that	.	.	.	.	.	.
8E	you	.	.	.	.	.	.
8F#	be-	.	.	.	.	.	.
4E	-lieved	2EM	.	voice	A	116.447	E:maj
8E	'Cause	.	.	.	.	.	.
8E	you	.	.	.	.	.	.
=57	=57	=57	=57	=57	=57	=57	=57
*>Letter>B2	*>Letter>B2	*>Letter>B2	*>Letter>B2	*>Letter>B2	*>Letter>B2	*>Letter>B2	*>Letter>B2
*>Label>Chorus	*>Label>Chorus	*>Label>Chorus	*>Label>Chorus	*>Label>Chorus	*>Label>Chorus	*>Label>Chorus	*>Label>Chorus
8G#	fought	1EM	newline	voice	.	117.492	E:maj
4G#	all	.	.	.	.	.	.
8B	the	.	.	.	.	.	.
4G#	way	.	.	.	.	.	.
8E	John-	.	.	.	.	.	.
8E	-ny	.	.	.	.	.	.
=58	=58	=58	=58	=58	=58	=58	=58
4G#	Reb,	1EM	.	voice	.	119.596	E:maj
8G#	John-	.	.	.	.	.	.
8F#	-ny	.	.	.	.	.	.
4E	Reb	.	.	.	.	.	.
8E	Yeah	.	.	.	.	.	.
8E	you	.	.	.	.	.	.
=59	=59	=59	=59	=59	=59	=59	=59
8G#	fought	2.EM	.	voice	.	121.699	E:maj
4G#	all	.	.	.	.	.	.
8B	the	.	.	.	.	.	.
4G#	way	.	.	.	.	.	.
8E	John-	4BMm	.	voice	.	123.277	B:7
8E	-ny	.	.	.	.	.	.
=60	=60	=60	=60	=60	=60	=60	=60
4E	Reb	1EM	.	voice	.	123.802	E:maj
4r	.	.	.	.	.	.	.
4r	.	.	.	.	.	.	.
8r	.	.	.	.	.	.	.
8E	you	.	.	.	.	.	.
=61	=61	=61	=61	=61	=61	=61	=61
*>Label>>Fadeout	*>Label>>Fadeout	*>Label>>Fadeout	*>Label>>Fadeout	*>Label>>Fadeout	*>Label>>Fadeout	*>Label>>Fadeout	*>Label>>Fadeout
8G#	fought	1EM	newline	voice	.	125.906	E:maj
4G#	all	.	.	.	.	.	.
8B	the	.	.	.	.	.	.
4G#	way	.	.	.	.	.	.
8E	John-	.	.	.	.	.	.
8E	-ny	.	.	.	.	.	.
=62	=62	=62	=62	=62	=62	=62	=62
4G#	Reb,	1EM	.	voice	.	127.987	E:maj
8G#	John-	.	.	.	.	.	.
8F#	-ny	.	.	.	.	.	.
4E	Reb	.	.	.	.	.	.
8r	.	.	.	.	.	.	.
8E	you	.	.	.	.	.	.
=63	=63	=63	=63	=63	=63	=63	=63
8G#	fought	2.EM	.	voice	.	130.067	E:maj
4G#	all	.	.	.	.	.	.
8B	the	.	.	.	.	.	.
4G#	way	.	.	.	.	.	.
8E	John-	4BMm	.	voice	.	131.628	B:7
8E	-ny	.	.	.	.	.	.
=64	=64	=64	=64	=64	=64	=64	=64
4E	Reb	1EM	.	voice	.	132.148	E:maj
4r	.	.	.	.	.	.	.
4r	.	.	.	.	.	.	.
8r	.	.	.	.	.	.	.
8E	you	.	.	.	.	.	.
=65	=65	=65	=65	=65	=65	=65	=65
8G#	fought	1EM	newline	voice	.	134.229	E:maj
4G#	all	.	.	.	.	.	.
8B	the	.	.	.	.	.	.
4G#	way	.	.	.	.	.	.
8E	John-	.	.	.	.	.	.
8E	-ny	.	.	.	.	.	.
=66	=66	=66	=66	=66	=66	=66	=66
4G#	Reb,	1EM	.	voice	.	136.204	E:maj
8G#	John-	.	.	.	.	.	.
8F#	-ny	.	.	.	.	.	.
4E	Reb	.	.	.	.	.	.
4r	.	.	.	.	.	.	.
=67	=67	=67	=67	=67	=67	=67	=67
1r	.	2.EM	.	voice	.	138.18	E:maj
.	.	4BMm	.	voice	.	139.661	B:7
r;	.	1r;	.	r	.	140.155	N.C.
r;	.	1r;	.	r	.	141.441	N.C.
*-	*-	*-	*-	*-	*-	*-	*-
!!!BillboardChartDate: 1959/08/24
!!!BillboardPeak: 54
!!!BillboardWeeksOnChart: 8
!!!COC: Johnny Horton
!!!ENC: Nathaniel Condit-Schultz
!!!EST: Awating manual error checking and editing.
!!!OTL: Johnny Reb
!!!RDF**chordsym: original McGill chord annotation + (implied pitch class set, with bass pitch in first position)
!!!RDF**harmony: **recip + pitch class of root + harmonic quality
!!!RDF**leadinstrument: original McGill primary instrumentation annotation
!!!RDF**phrase: newline = linebreak in original McGill transcription
!!!RDF**timestamp: McGill audio timestamp in seconds
!!!RDT: 2017/01/12/
!!!SampleActualRank: 70
!!!SampleID#: 1287
!!!SampleTargetRank: 69
